src/images/pages/trade-explanation/zh_cn/up.svg

<svg width="299" height="199" xmlns="http://www.w3.org/2000/svg"><g transform="translate(2 2)" fill="none" fill-rule="evenodd"><path stroke="#C2C2C2" stroke-width="2.423" fill="#F1F2F2" d="M0 0h295v195H0z"/><path d="M2 54.29h291M2 74.618h291M2 94.908h291M2 135.526h291M2 155.816h291M2 176.106h291M37.127 34v160M73.943 34v160M110.76 34v160m36.816-160v160m36.816-160v160m36.816-160v160m36.816-160v160" stroke="#DFDEDE" stroke-width="1.211"/><path d="M24.568 142.402h10.906v.98h-2.338v3.71h3.066v.966h-3.066v6.202h-1.022v-6.202h-4.046c-.126 1.442-.392 2.632-.812 3.584-.532 1.176-1.414 2.086-2.646 2.73l-.546-.868c1.134-.644 1.932-1.498 2.38-2.562.294-.812.49-1.764.602-2.884h-3.234v-.966h3.29c0-.182.014-.35.014-.49v-3.22h-2.548v-.98zm3.584.98v3.22c0 .168-.014.336-.014.49h3.976v-3.71h-3.962zm11.144-1.876l.994.084a120.1 120.1 0 0 1-.378 2.646h2.072v.588c-.112 2.268-.504 4.214-1.176 5.866.658.686 1.204 1.302 1.624 1.862l-.672.784a21.617 21.617 0 0 0-1.4-1.666c-.56 1.064-1.246 1.988-2.086 2.772l-.63-.798a9.204 9.204 0 0 0 2.03-2.716 73.777 73.777 0 0 0-1.806-1.778c.336-1.218.63-2.534.882-3.948h-1.12v-.966h1.288c.14-.882.266-1.792.378-2.73zm.798 8.456c.532-1.4.84-2.982.938-4.76h-1.274c-.266 1.47-.532 2.688-.812 3.654.406.378.784.742 1.148 1.106zm9.282-1.512v5.964h-.966v-.84h-4.284v.84h-.966v-5.964h6.216zm-5.25 4.172h4.284v-3.248h-4.284v3.248zm-1.512-5.432l-.154-.91c.812-.42 1.82-1.988 3.024-4.732l.952.322c-.84 1.82-1.666 3.262-2.506 4.34a47.68 47.68 0 0 0 4.48-.49 26.867 26.867 0 0 0-1.19-2.128l.868-.42a35.347 35.347 0 0 1 2.17 4.046l-.938.448c-.168-.378-.322-.742-.49-1.092a77.818 77.818 0 0 1-6.216.616z" fill="#2A3052" fill-rule="nonzero"/><path d="M2 115.5h291" stroke="#2A3052" stroke-width="1.211" stroke-linejoin="round"/><path d="M0 32.5h295" stroke="#C2C2C2" stroke-width="2.423"/><path stroke="#2A3052" stroke-width="3.634" stroke-linecap="round" stroke-linejoin="round" d="M38 114.479l28.385-26.24 38.636 38.911 35.369-51.021L190.627 131l42.165-73L259 73.96"/><path d="M186.298 146.29h-34.925L146 138l-5.373 8.29h-34.925a4.69 4.69 0 0 0-3.345 1.43 4.829 4.829 0 0 0-1.357 3.415v25.02c-.016 2.653 2.086 4.82 4.702 4.845h80.596a4.69 4.69 0 0 0 3.345-1.43 4.829 4.829 0 0 0 1.357-3.415v-25.02c.016-2.654-2.086-4.82-4.702-4.845z" fill="#E88024"/><ellipse cx="8.512" cy="8.677" rx="8.137" ry="8.486" opacity=".6" transform="translate(250 66)" fill="#FFF"/><ellipse stroke="#E88024" stroke-width="2.423" cx="258" cy="74.5" rx="8" ry="8.5"/><ellipse cx="9.037" cy="9.076" rx="8.137" ry="8.486" opacity=".6" transform="translate(28 106)" fill="#FFF"/><ellipse stroke="#E88024" stroke-width="2.423" cx="37" cy="115.5" rx="8" ry="8.5"/><path d="M30.528 18.254h-.896v4.452a8.707 8.707 0 0 0 1.344-.686l.252 1.33c-.826.448-1.778.812-2.842 1.092l-.602-1.274c.336-.126.518-.308.518-.56v-4.354h-.812v-1.33h.812v-5.376h1.33v5.376h3.766v1.33h-1.652c.126 2.1.756 3.878 1.876 5.334l-.994.98c-1.274-1.792-1.974-3.892-2.1-6.314zm-5.362-1.848l-.14 1.876h2.24c0 2.366-.07 3.948-.21 4.746-.14.812-.756 1.246-1.848 1.33-.252 0-.518-.028-.784-.056l-.336-1.288c.252.028.518.056.798.056.504 0 .784-.224.868-.658.07-.448.112-1.372.112-2.8h-2.268l.322-4.564h1.89v-1.764h-2.002V11.94h3.416v4.466h-2.058zm-3.374-4.746c.77.672 1.428 1.33 1.96 1.988l-1.008 1.008c-.462-.644-1.106-1.33-1.932-2.058l.98-.938zm-.308 3.346c.756.672 1.4 1.358 1.932 2.03l-.994.994c-.448-.644-1.092-1.33-1.918-2.086l.98-.938zm.7 3.766l1.26.504a64.822 64.822 0 0 1-1.554 5.026l-1.288-.56a55.413 55.413 0 0 0 1.582-4.97zm10.36-6.524l1.022.826c-.882 1.484-1.918 2.562-3.108 3.262l-.728-1.008c1.092-.686 2.03-1.708 2.814-3.08z" fill="#000" fill-rule="nonzero"/><path d="M257.032 125.784v10.404h-.864v-.78h-6.312v.804h-.876v-10.428h8.052zm-7.176 8.784h6.312v-2.256h-6.312v2.256zm0-3.048h6.312v-2.112h-6.312v2.112zm0-2.904h6.312v-1.992h-6.312v1.992zm11.436-3.384h.852v2.268h1.392v.828h-1.392v.924c.588.6 1.176 1.272 1.764 2.004l-.492.732a25.109 25.109 0 0 0-1.272-1.812v6.012h-.852v-5.976a14.173 14.173 0 0 1-1.476 3.096l-.372-.936c.864-1.176 1.476-2.532 1.848-4.044h-1.464v-.828h1.464v-2.268zm3.54 5.424l.792.18c-.384 1.68-.948 3.12-1.668 4.344l-.744-.48a13.228 13.228 0 0 0 1.62-4.044zm4.344-.06a36.176 36.176 0 0 1 1.296 4.344l-.78.348c-.396-1.668-.828-3.144-1.296-4.44l.78-.252zm-2.688 5.472h-1.224l-.168-.804c.384.024.744.048 1.092.048.324 0 .492-.18.492-.528v-5.124h-2.928v-.828h6.732v.828h-2.94V135c0 .708-.36 1.068-1.056 1.068zm-2.1-10.152h5.472v.816h-5.472v-.816z" fill="#6D6E71" fill-rule="nonzero"/><path d="M250.768 103.6v.952c-1.428.518-3.038.938-4.858 1.274l-.126-.98c1.904-.308 3.556-.728 4.984-1.246zm-2.59-10.08l.938.364c-.714 1.82-1.442 3.276-2.17 4.368a52.484 52.484 0 0 0 1.988-.294c.266-.504.546-1.022.826-1.554l.882.322c-1.274 2.366-2.338 4.046-3.192 5.054a24.89 24.89 0 0 0 3.15-.84v.896c-1.512.518-2.968.868-4.368 1.05l-.266-.91c.182-.084.336-.182.462-.294.532-.546 1.19-1.47 1.974-2.786-.798.126-1.596.238-2.408.35l-.252-.924c.154-.07.294-.196.42-.378.784-1.288 1.456-2.758 2.016-4.424zm2.422 1.778h3.346v-1.694h1.022v1.694h3.332v.98h-3.332v2.072h2.926v.98h-6.832v-.98h2.884v-2.072H250.6v-.98zm6.888 5.432v5.628h-.98v-.672h-4.004v.672h-.994v-5.628h5.978zm-4.984 4.004h4.004v-3.052h-4.004v3.052zm7.504-9.73h5.474v-1.4h1.036v1.4h5.446v.966h-5.446v1.372h4.41v3.962h-3.556c1.008 1.428 2.716 2.688 5.096 3.808l-.686.868c-2.478-1.386-4.214-2.94-5.222-4.676h-.042v5.082h-1.036v-5.082h-.042c-1.064 1.904-2.828 3.472-5.306 4.704l-.588-.924c2.324-.98 4.018-2.24 5.068-3.78H261.1v-3.962h4.382V95.97h-5.474v-.966zm9.912 5.376v-2.086h-3.402v2.086h3.402zm-4.438 0v-2.086h-3.374v2.086h3.374z" fill="#2A3052" fill-rule="nonzero"/><path d="M148.75 162.948v6.666h-1.584v-4.994h-2.618v4.95h-1.606v-6.622h5.808zm-2.838 7.876l-.132.264c-.462.88-1.21 1.54-2.244 2.002l-.924-1.43c.946-.44 1.584-.99 1.936-1.628.33-.704.528-1.606.572-2.706v-1.892h1.452v1.892a12.51 12.51 0 0 1-.198 1.958c.77.66 1.43 1.32 1.98 1.98l-1.166 1.188a13.248 13.248 0 0 0-1.276-1.628zm-9.746-16.698h8.756a8.727 8.727 0 0 0-.572-1.012l2.31-.396c.154.418.308.88.44 1.408h8.734v1.584h-15.818v.726h14.41v1.518h-16.522v-2.244h-1.738v-1.584zm2.354 4.488h14.894v3.586H138.52v-3.586zm12.65 2.156v-.726h-10.406v.726h10.406zm-12.408 6.424a18.77 18.77 0 0 1-.088 1.188h1.892v-1.188h-1.804zm1.804-1.386v-1.166h-1.782v1.166h1.782zm-2.09 3.96c-.264 1.386-.726 2.574-1.342 3.586l-1.408-1.276c.836-1.408 1.276-3.168 1.298-5.324v-3.784h5.28v8.646c0 1.056-.616 1.606-1.826 1.606h-.814l-.484-1.672c.264.044.528.088.77.088.396 0 .616-.22.616-.638v-1.232h-2.09zm16.456 3.234h-.902c-.902 0-1.342-.462-1.342-1.364v-2.464l-.946.44c-.22-.836-.44-1.606-.682-2.266-.044 1.386-.132 2.464-.308 3.234-.242.88-.748 1.826-1.518 2.816l-1.364-1.21c.638-.77 1.056-1.474 1.254-2.112.198-.682.308-1.782.308-3.322v-3.806h4.928v8.14c0 .198.088.308.286.308h.022c.066 0 .132-.11.198-.286.044-.176.066-.836.11-1.958l1.43.506c-.132 1.496-.286 2.442-.462 2.816-.198.352-.528.528-1.012.528zm-3.872-6.27l.88-.308c.286.66.528 1.364.748 2.09v-3.828h-1.628v2.046z" fill="#FFF" fill-rule="nonzero"/></g></svg>

<?xml version="1.0" encoding="UTF-8"?>
<svg width="299px" height="199px" viewBox="0 0 299 199" version="1.1" xmlns="http://www.w3.org/2000/svg" xmlns:xlink="http://www.w3.org/1999/xlink">
    <!-- Generator: Sketch 52.3 (67297) - http://www.bohemiancoding.com/sketch -->
    <title>Simplified Chinese up</title>
    <desc>Created with Sketch.</desc>
    <g id="Simplified-Chinese-up" stroke="none" stroke-width="1" fill="none" fill-rule="evenodd">
        <g transform="translate(2.000000, 2.000000)">
            <polygon id="Path" stroke="#C2C2C2" stroke-width="2.422875" fill="#F1F2F2" points="0 0 295 0 295 195 0 195"></polygon>
            <path d="M2,54.2901264 L293,54.2901264 M2,74.6176884 L293,74.6176884 M2,94.9078147 L293,94.9078147 M2,135.525503 L293,135.525503 M2,155.81563 L293,155.81563 M2,176.105756 L293,176.105756 M37.1271602,34 L37.1271602,194 M73.9431261,34 L73.9431261,194 M110.759092,34 L110.759092,194 M147.575058,34 L147.575058,194 M184.391024,34 L184.391024,194 M221.20699,34 L221.20699,194 M258.022956,34 L258.022956,194" id="Shape" stroke="#DFDEDE" stroke-width="1.21125"></path>
            <path d="M24.568,142.402 L35.474,142.402 L35.474,143.382 L33.136,143.382 L33.136,147.092 L36.202,147.092 L36.202,148.058 L33.136,148.058 L33.136,154.26 L32.114,154.26 L32.114,148.058 L28.068,148.058 C27.942,149.5 27.676,150.69 27.256,151.642 C26.724,152.818 25.842,153.728 24.61,154.372 L24.064,153.504 C25.198,152.86 25.996,152.006 26.444,150.942 C26.738,150.13 26.934,149.178 27.046,148.058 L23.812,148.058 L23.812,147.092 L27.102,147.092 C27.102,146.91 27.116,146.742 27.116,146.602 L27.116,143.382 L24.568,143.382 L24.568,142.402 Z M28.152,143.382 L28.152,146.602 C28.152,146.77 28.138,146.938 28.138,147.092 L32.114,147.092 L32.114,143.382 L28.152,143.382 Z M39.296,141.506 L40.29,141.59 C40.164,142.542 40.038,143.424 39.912,144.236 L41.984,144.236 L41.984,144.824 C41.872,147.092 41.48,149.038 40.808,150.69 C41.466,151.376 42.012,151.992 42.432,152.552 L41.76,153.336 C41.368,152.818 40.906,152.258 40.36,151.67 C39.8,152.734 39.114,153.658 38.274,154.442 L37.644,153.644 C38.47,152.888 39.142,151.992 39.674,150.928 C39.114,150.354 38.512,149.766 37.868,149.15 C38.204,147.932 38.498,146.616 38.75,145.202 L37.63,145.202 L37.63,144.236 L38.918,144.236 C39.058,143.354 39.184,142.444 39.296,141.506 Z M40.094,149.962 C40.626,148.562 40.934,146.98 41.032,145.202 L39.758,145.202 C39.492,146.672 39.226,147.89 38.946,148.856 C39.352,149.234 39.73,149.598 40.094,149.962 Z M49.376,148.45 L49.376,154.414 L48.41,154.414 L48.41,153.574 L44.126,153.574 L44.126,154.414 L43.16,154.414 L43.16,148.45 L49.376,148.45 Z M44.126,152.622 L48.41,152.622 L48.41,149.374 L44.126,149.374 L44.126,152.622 Z M42.614,147.19 L42.46,146.28 C43.272,145.86 44.28,144.292 45.484,141.548 L46.436,141.87 C45.596,143.69 44.77,145.132 43.93,146.21 C45.498,146.112 46.996,145.944 48.41,145.72 C48.018,144.95 47.626,144.236 47.22,143.592 L48.088,143.172 C48.858,144.404 49.586,145.748 50.258,147.218 L49.32,147.666 C49.152,147.288 48.998,146.924 48.83,146.574 C46.968,146.84 44.896,147.05 42.614,147.19 Z" id="开始" fill="#2A3052" fill-rule="nonzero"></path>
            <path d="M2,115.5 L293,115.5" id="Path" stroke="#2A3052" stroke-width="1.21125" stroke-linejoin="round"></path>
            <path d="M0,32.5 L295,32.5" id="Path" stroke="#C2C2C2" stroke-width="2.422875"></path>
            <polyline id="Path" stroke="#2A3052" stroke-width="3.634125" stroke-linecap="round" stroke-linejoin="round" points="38 114.478751 66.3853211 88.2391192 105.020897 127.150025 140.389908 76.1285201 190.627421 131 232.792389 58 259 73.9605734"></polyline>
            <path d="M186.298248,146.289613 L151.3731,146.289613 L146,138 L140.6269,146.289613 L105.701752,146.289613 C104.443691,146.295584 103.239948,146.810394 102.357388,147.719913 C101.474826,148.629432 100.986364,149.858516 101.00029,151.134683 L101.00029,176.15493 C100.983724,178.808221 103.086301,180.975022 105.701752,181 L186.298248,181 C187.556309,180.99403 188.760052,180.47922 189.642612,179.5697 C190.525174,178.660181 191.013636,177.431097 190.99971,176.15493 L190.99971,151.134683 C191.016276,148.481393 188.913699,146.314592 186.298248,146.289613 Z" id="Path" fill="#E88024"></path>
            <g id="Group" opacity="0.6" transform="translate(250.000000, 66.000000)" fill="#FFFFFF">
                <ellipse id="Oval" cx="8.5125" cy="8.6771698" rx="8.1375" ry="8.48566038"></ellipse>
            </g>
            <ellipse id="Oval" stroke="#E88024" stroke-width="2.422875" cx="258" cy="74.5" rx="8" ry="8.5"></ellipse>
            <g id="Group" opacity="0.6" transform="translate(28.000000, 106.000000)" fill="#FFFFFF">
                <ellipse id="Oval" cx="9.0375" cy="9.0764151" rx="8.1375" ry="8.48566038"></ellipse>
            </g>
            <ellipse id="Oval" stroke="#E88024" stroke-width="2.422875" cx="37" cy="115.5" rx="8" ry="8.5"></ellipse>
            <path d="M30.528,18.254 L29.632,18.254 L29.632,22.706 C30.08,22.524 30.528,22.3 30.976,22.02 L31.228,23.35 C30.402,23.798 29.45,24.162 28.386,24.442 L27.784,23.168 C28.12,23.042 28.302,22.86 28.302,22.608 L28.302,18.254 L27.49,18.254 L27.49,16.924 L28.302,16.924 L28.302,11.548 L29.632,11.548 L29.632,16.924 L33.398,16.924 L33.398,18.254 L31.746,18.254 C31.872,20.354 32.502,22.132 33.622,23.588 L32.628,24.568 C31.354,22.776 30.654,20.676 30.528,18.254 Z M25.166,16.406 L25.026,18.282 L27.266,18.282 C27.266,20.648 27.196,22.23 27.056,23.028 C26.916,23.84 26.3,24.274 25.208,24.358 C24.956,24.358 24.69,24.33 24.424,24.302 L24.088,23.014 C24.34,23.042 24.606,23.07 24.886,23.07 C25.39,23.07 25.67,22.846 25.754,22.412 C25.824,21.964 25.866,21.04 25.866,19.612 L23.598,19.612 L23.92,15.048 L25.81,15.048 L25.81,13.284 L23.808,13.284 L23.808,11.94 L27.224,11.94 L27.224,16.406 L25.166,16.406 Z M21.792,11.66 C22.562,12.332 23.22,12.99 23.752,13.648 L22.744,14.656 C22.282,14.012 21.638,13.326 20.812,12.598 L21.792,11.66 Z M21.484,15.006 C22.24,15.678 22.884,16.364 23.416,17.036 L22.422,18.03 C21.974,17.386 21.33,16.7 20.504,15.944 L21.484,15.006 Z M22.184,18.772 L23.444,19.276 C22.968,21.054 22.45,22.734 21.89,24.302 L20.602,23.742 C21.204,22.118 21.736,20.452 22.184,18.772 Z M32.544,12.248 L33.566,13.074 C32.684,14.558 31.648,15.636 30.458,16.336 L29.73,15.328 C30.822,14.642 31.76,13.62 32.544,12.248 Z" id="涨" fill="#000000" fill-rule="nonzero"></path>
            <path d="M257.032,125.784 L257.032,136.188 L256.168,136.188 L256.168,135.408 L249.856,135.408 L249.856,136.212 L248.98,136.212 L248.98,125.784 L257.032,125.784 Z M249.856,134.568 L256.168,134.568 L256.168,132.312 L249.856,132.312 L249.856,134.568 Z M249.856,131.52 L256.168,131.52 L256.168,129.408 L249.856,129.408 L249.856,131.52 Z M249.856,128.616 L256.168,128.616 L256.168,126.624 L249.856,126.624 L249.856,128.616 Z M261.292,125.232 L262.144,125.232 L262.144,127.5 L263.536,127.5 L263.536,128.328 L262.144,128.328 L262.144,129.252 C262.732,129.852 263.32,130.524 263.908,131.256 L263.416,131.988 C262.924,131.232 262.504,130.632 262.144,130.176 L262.144,136.188 L261.292,136.188 L261.292,130.212 C260.908,131.34 260.416,132.372 259.816,133.308 L259.444,132.372 C260.308,131.196 260.92,129.84 261.292,128.328 L259.828,128.328 L259.828,127.5 L261.292,127.5 L261.292,125.232 Z M264.832,130.656 L265.624,130.836 C265.24,132.516 264.676,133.956 263.956,135.18 L263.212,134.7 C263.956,133.488 264.496,132.144 264.832,130.656 Z M269.176,130.596 C269.68,131.952 270.112,133.404 270.472,134.94 L269.692,135.288 C269.296,133.62 268.864,132.144 268.396,130.848 L269.176,130.596 Z M266.488,136.068 L265.264,136.068 L265.096,135.264 C265.48,135.288 265.84,135.312 266.188,135.312 C266.512,135.312 266.68,135.132 266.68,134.784 L266.68,129.66 L263.752,129.66 L263.752,128.832 L270.484,128.832 L270.484,129.66 L267.544,129.66 L267.544,135 C267.544,135.708 267.184,136.068 266.488,136.068 Z M264.388,125.916 L269.86,125.916 L269.86,126.732 L264.388,126.732 L264.388,125.916 Z" id="目标" fill="#6D6E71" fill-rule="nonzero"></path>
            <path d="M250.768,103.6 L250.768,104.552 C249.34,105.07 247.73,105.49 245.91,105.826 L245.784,104.846 C247.688,104.538 249.34,104.118 250.768,103.6 Z M248.178,93.52 L249.116,93.884 C248.402,95.704 247.674,97.16 246.946,98.252 C247.604,98.168 248.262,98.07 248.934,97.958 C249.2,97.454 249.48,96.936 249.76,96.404 L250.642,96.726 C249.368,99.092 248.304,100.772 247.45,101.78 C248.514,101.57 249.564,101.29 250.6,100.94 L250.6,101.836 C249.088,102.354 247.632,102.704 246.232,102.886 L245.966,101.976 C246.148,101.892 246.302,101.794 246.428,101.682 C246.96,101.136 247.618,100.212 248.402,98.896 C247.604,99.022 246.806,99.134 245.994,99.246 L245.742,98.322 C245.896,98.252 246.036,98.126 246.162,97.944 C246.946,96.656 247.618,95.186 248.178,93.52 Z M250.6,95.298 L253.946,95.298 L253.946,93.604 L254.968,93.604 L254.968,95.298 L258.3,95.298 L258.3,96.278 L254.968,96.278 L254.968,98.35 L257.894,98.35 L257.894,99.33 L251.062,99.33 L251.062,98.35 L253.946,98.35 L253.946,96.278 L250.6,96.278 L250.6,95.298 Z M257.488,100.73 L257.488,106.358 L256.508,106.358 L256.508,105.686 L252.504,105.686 L252.504,106.358 L251.51,106.358 L251.51,100.73 L257.488,100.73 Z M252.504,104.734 L256.508,104.734 L256.508,101.682 L252.504,101.682 L252.504,104.734 Z M260.008,95.004 L265.482,95.004 L265.482,93.604 L266.518,93.604 L266.518,95.004 L271.964,95.004 L271.964,95.97 L266.518,95.97 L266.518,97.342 L270.928,97.342 L270.928,101.304 L267.372,101.304 C268.38,102.732 270.088,103.992 272.468,105.112 L271.782,105.98 C269.304,104.594 267.568,103.04 266.56,101.304 L266.518,101.304 L266.518,106.386 L265.482,106.386 L265.482,101.304 L265.44,101.304 C264.376,103.208 262.612,104.776 260.134,106.008 L259.546,105.084 C261.87,104.104 263.564,102.844 264.614,101.304 L261.1,101.304 L261.1,97.342 L265.482,97.342 L265.482,95.97 L260.008,95.97 L260.008,95.004 Z M269.92,100.38 L269.92,98.294 L266.518,98.294 L266.518,100.38 L269.92,100.38 Z M265.482,100.38 L265.482,98.294 L262.108,98.294 L262.108,100.38 L265.482,100.38 Z" id="结束" fill="#2A3052" fill-rule="nonzero"></path>
            <path d="M148.75,162.948 L148.75,169.614 L147.166,169.614 L147.166,164.62 L144.548,164.62 L144.548,169.57 L142.942,169.57 L142.942,162.948 L148.75,162.948 Z M145.912,170.824 L145.78,171.088 C145.318,171.968 144.57,172.628 143.536,173.09 L142.612,171.66 C143.558,171.22 144.196,170.67 144.548,170.032 C144.878,169.328 145.076,168.426 145.12,167.326 L145.12,165.434 L146.572,165.434 L146.572,167.326 C146.55,168.052 146.484,168.712 146.374,169.284 C147.144,169.944 147.804,170.604 148.354,171.264 L147.188,172.452 C146.836,171.924 146.418,171.374 145.912,170.824 Z M136.166,154.126 L144.922,154.126 C144.746,153.752 144.548,153.422 144.35,153.114 L146.66,152.718 C146.814,153.136 146.968,153.598 147.1,154.126 L155.834,154.126 L155.834,155.71 L140.016,155.71 L140.016,156.436 L154.426,156.436 L154.426,157.954 L137.904,157.954 L137.904,155.71 L136.166,155.71 L136.166,154.126 Z M138.52,158.614 L153.414,158.614 L153.414,162.2 L138.52,162.2 L138.52,158.614 Z M151.17,160.77 L151.17,160.044 L140.764,160.044 L140.764,160.77 L151.17,160.77 Z M138.762,167.194 C138.74,167.612 138.718,168.008 138.674,168.382 L140.566,168.382 L140.566,167.194 L138.762,167.194 Z M140.566,165.808 L140.566,164.642 L138.784,164.642 L138.784,165.808 L140.566,165.808 Z M138.476,169.768 C138.212,171.154 137.75,172.342 137.134,173.354 L135.726,172.078 C136.562,170.67 137.002,168.91 137.024,166.754 L137.024,162.97 L142.304,162.97 L142.304,171.616 C142.304,172.672 141.688,173.222 140.478,173.222 L139.664,173.222 L139.18,171.55 C139.444,171.594 139.708,171.638 139.95,171.638 C140.346,171.638 140.566,171.418 140.566,171 L140.566,169.768 L138.476,169.768 Z M154.932,173.002 L154.03,173.002 C153.128,173.002 152.688,172.54 152.688,171.638 L152.688,169.174 L151.742,169.614 C151.522,168.778 151.302,168.008 151.06,167.348 C151.016,168.734 150.928,169.812 150.752,170.582 C150.51,171.462 150.004,172.408 149.234,173.398 L147.87,172.188 C148.508,171.418 148.926,170.714 149.124,170.076 C149.322,169.394 149.432,168.294 149.432,166.754 L149.432,162.948 L154.36,162.948 L154.36,171.088 C154.36,171.286 154.448,171.396 154.646,171.396 L154.668,171.396 C154.734,171.396 154.8,171.286 154.866,171.11 C154.91,170.934 154.932,170.274 154.976,169.152 L156.406,169.658 C156.274,171.154 156.12,172.1 155.944,172.474 C155.746,172.826 155.416,173.002 154.932,173.002 Z M151.06,166.732 L151.94,166.424 C152.226,167.084 152.468,167.788 152.688,168.514 L152.688,164.686 L151.06,164.686 L151.06,166.732 Z" id="赢" fill="#FFFFFF" fill-rule="nonzero"></path>
        </g>
    </g>
</svg>
